icons/goal-24.svg

<svg xmlns="http://www.w3.org/2000/svg" width="24" height="24" viewBox="0 0 24 24"><path d="M20.172 6.75h-1.861l-4.566 4.564a1.874 1.874 0 11-1.06-1.06l4.565-4.565V3.828a.94.94 0 01.275-.664l1.73-1.73a.249.249 0 01.25-.063c.089.026.155.1.173.191l.46 2.301 2.3.46c.09.018.164.084.19.173a.25.25 0 01-.062.249l-1.731 1.73a.937.937 0 01-.663.275z"/><path d="M2.625 12A9.375 9.375 0 0012 21.375 9.375 9.375 0 0021.375 12c0-.898-.126-1.766-.361-2.587A.75.75 0 0122.455 9c.274.954.42 1.96.42 3 0 6.006-4.869 10.875-10.875 10.875S1.125 18.006 1.125 12 5.994 1.125 12 1.125c1.015-.001 2.024.14 3 .419a.75.75 0 11-.413 1.442A9.39 9.39 0 0012 2.625 9.375 9.375 0 002.625 12z"/><path d="M7.125 12a4.874 4.874 0 109.717-.569.748.748 0 011.047-.798c.251.112.42.351.442.625a6.373 6.373 0 01-10.836 5.253 6.376 6.376 0 015.236-10.844.75.75 0 11-.17 1.49A4.876 4.876 0 007.125 12z"/></svg>

<svg xmlns="http://www.w3.org/2000/svg" width="24" height="24" viewBox="0 0 24 24">
  <defs/>
  <path d="M20.172,6.75 L18.311,6.75 L13.745,11.314 C14.07,12.141 13.77,13.081 13.027,13.568 C12.284,14.054 11.302,13.953 10.674,13.325 C10.046,12.697 9.945,11.715 10.431,10.972 C10.918,10.229 11.858,9.929 12.685,10.254 L17.25,5.689 L17.25,3.828 C17.25,3.579 17.349,3.34 17.525,3.164 L19.255,1.434 C19.32,1.368 19.416,1.344 19.505,1.371 C19.594,1.397 19.66,1.471 19.678,1.562 L20.138,3.863 L22.438,4.323 C22.528,4.341 22.602,4.407 22.628,4.496 C22.655,4.584 22.631,4.68 22.566,4.745 L20.835,6.475 C20.659,6.651 20.421,6.75 20.172,6.75 Z"/>
  <path d="M2.625,12 C2.625,17.178 6.822,21.375 12,21.375 C17.178,21.375 21.375,17.178 21.375,12 C21.375,11.102 21.249,10.234 21.014,9.413 C20.917,9.021 21.147,8.623 21.535,8.512 C21.923,8.4 22.33,8.616 22.455,9 C22.729,9.954 22.875,10.96 22.875,12 C22.875,18.006 18.006,22.875 12,22.875 C5.994,22.875 1.125,18.006 1.125,12 C1.125,5.994 5.994,1.125 12,1.125 C13.015,1.124 14.024,1.265 15,1.544 C15.259,1.617 15.459,1.822 15.525,2.083 C15.59,2.344 15.511,2.62 15.318,2.806 C15.124,2.993 14.845,3.061 14.587,2.986 C13.746,2.746 12.875,2.624 12,2.625 C6.822,2.625 2.625,6.822 2.625,12 Z"/>
  <path d="M7.125,12 C7.126,13.809 8.129,15.469 9.73,16.311 C11.331,17.154 13.267,17.041 14.758,16.017 C16.25,14.993 17.052,13.228 16.842,11.431 C16.8,11.16 16.91,10.887 17.129,10.721 C17.347,10.555 17.639,10.521 17.889,10.633 C18.14,10.745 18.309,10.984 18.331,11.258 C18.647,13.953 17.222,16.553 14.78,17.736 C12.339,18.92 9.415,18.428 7.495,16.511 C5.575,14.594 5.079,11.672 6.258,9.228 C7.438,6.785 10.035,5.356 12.731,5.667 C13.002,5.692 13.237,5.862 13.347,6.11 C13.457,6.358 13.425,6.647 13.261,6.864 C13.098,7.081 12.83,7.193 12.561,7.157 C11.18,6.997 9.795,7.435 8.757,8.36 C7.719,9.285 7.125,10.609 7.125,12 Z"/>
</svg>
